X:1
T:Title
%%score ( 1 2 ) { 3 | 4 }
L:1/8
Q:1/4=94
M:4/4
K:Eb
V:1 treble nm="Grand Piano, Soprano"
V:2 treble 
V:3 treble nm="Choir Pad, We Shall Reap By and By"
V:4 bass 
V:1
 [GB] [GB]2 [_G=A] [=GB] [EG]2 E | [EG] [DF]2 [DF]- [DF]/[EG]/ [DF]3 | %2
w: By~Alonzo~Judson~Abbey * * * * *||
 [EG] [FA]2 [FA] [Bd] [Ac]2 [GB] | [FA][EG][DF][EG] [FA] [GB]3 | [GB] [GB]2 [_G=A] [=GB] [EG]2 E | %5
w: |||
 [EG]FB[DB] [Fc] [Fd]3 | [Fd] [Ge]2 [Bd] [Ac][Ac][GB][EG] | E [EG]2 [EG] [DF] E2 [GB] | %8
w: |||
 [GB] [GB]2 [_G=A] [=GB][_Ac][GB][EG]- | [EG] E2 E- E/[DF]/ [EG]3- | %10
w: ||
 [EG] [DF]2 [DF] [EG] [DF]2 [DB] | [FB] F2 [F=A] [Fc] [FB]3- | %12
w: ||
 [FB] [GB]2 [_G=A] [=GB][_Ac][GB][EG] | [GB] [Ge]2 [Ge] [Bd] [Ac]2 [ce] | %14
w: ||
 [Ac] [GB]2 [GB] [Ac] [GB]2 E- | E [EG]2 [EG] [DF] E3- | E4 z4 |] %17
w: |||
V:2
 x8 | x8 | x8 | x8 | x8 | z .D3 z4 | x8 | x8 | x8 | x8 | x8 | x8 | x8 | x8 | x8 | x8 | x8 |] %17
V:3
 E E2 E E B,2[K:bass] G, | B, B,2 B,- B,/B,/ B,3 | B, B,2 B, B, B,2 B, | B, B,2 B, B, B,3 | %4
 E E2 E E B,2[K:bass] G, | B, B,2 B, =A, B,3 | B, B,2[K:treble] E E E2 B, | %7
 G,[K:bass] B,2 B, A, G,2 E | E E2 E E E2 E- | E[K:bass] G,2 G,- G,/B,/ B,3- | %10
 B, B,2 B, B, B,2 B, | D D2 E E D3- | D E2 E E E2[K:bass] B, | B, B,2 B, E[K:treble] E2 E | %14
 E E2 E E E2[K:bass] B,- | B, B,2 B, B, G,3- | G,4 z4 |] %17
V:4
 E, E,2 E, E, E,2 E, | E, B,,2 B,,- B,,/B,,/ B,,3 | B,, B,,2 B,, B,, B,,2 B,, | B,, E,2 E, E, E,3 | %4
 E, E,2 E, E, E,2 E, | E, F,2 F, .F,2 z2 | B,, E,2 E, E, E,2 E, | E, B,,2 B,, B,, E,2 E, | %8
 E, E,2 E, E, E,2 E,- | E, C,2 C,- C,/B,,/ E,3- | E, B,,2 B,, B,, B,,2 B,, | B,, F,2 F, F, B,,3- | %12
 B,, E,2 E, E, E,2 E, | E, E,2 E, G, A,2 A, | A, E,2 E, E, E,2 G,- | G, z z B,, B,, E,3- | %16
 E,4 z4 |] %17

